X: 2057
T: RINETTANS DAUGHTER
C:
Q: "Strathspey."
R: Strathspey.
%R: strathspey
B: James Kerr "Merry Melodies" v.2 p.9 #57
Z: 2016 John Chambers <jc:trillian.mit.edu>
M: C
L: 1/16
K: C	% and Am
uc2 |\
(vEFG2) uc3uG A4 (AB3) | vcuG3vA3uG vc3vGE4 |\
G3Ac3G AAA2 (A3B) | vc3vdue3ud c3A A2 :|
|: ua2 |\
(g2e2)(e2a2) vg3veue3ud | cG3A3uG c3GE4 |\
vG3vAuc3uG AAA2 (A3B) |[1 c3de3d cA3 A2 :|[2 vc3vdue3ug de3c3G |]
